X: 17208
T: Henry's Welcome
R: reel
M: 4/4
K: Cmajor
|:Acec dcBG|F2 FE FAGF|EGcG EGcG|BABc edcB|
Acec dcBG|F2 FE FAGF|1 ECCC G,CCC|B,CDE FGAB:|2 E2EF GABc|B2Bc def^g||
|:aeee aege|fccc fcdf|eccc Gccc|BABc def^g|
aeee aege|fccc fcdf|1 ecGc EGCG|EFAB cdf^g:|2 ecGc EGCG|EFAB cdBc||

